X:75
T: Jack Sweeney's
S: "Johnny O'Leary of Sliabh Luachra" (#183)
Z: B.Black
L: 1/8
M: 6/8
R: jig
K: D
aga fdf|dcd A2A|dcd fdd|gfg efg|
aga fdf|dcd A2A|(3B/c/d/ cd gec|1 edc d3 :|2\
edc dcB||
A2d fdd|add fdd|Add fdd|gfg ecB|
Add fdd|add fdd|Add efg|fdc d2c|
Add fdd|add fdd|Add fdf|gfg efg|
aga fdf|dcd A2A|(3B/c/d/ Bd gec|edc d3 ||
